src/components/Icon/utils/svgsOptimized/strike.svg

<svg width="24" height="24" viewBox="0 0 24 24"  xmlns="http://www.w3.org/2000/svg">
<path d="M9.15501 10.23C8.98501 10.26 8.80501 10.15 8.77501 9.97H8.78501L8.70501 9.56C8.65501 9.34 8.63501 9.11 8.63501 8.85C8.63501 7.45 9.89501 6 12.005 6C13.635 6 14.655 7.28 14.695 7.34L14.955 7.67C15.065 7.81 15.035 8.02 14.895 8.13L14.225 8.65C14.085 8.76 13.875 8.73 13.765 8.59L13.505 8.26C13.505 8.26 12.875 7.5 11.995 7.5C10.825 7.5 10.125 8.19 10.125 8.85C10.125 9.01 10.135 9.15 10.165 9.28L10.245 9.69C10.275 9.86 10.165 10.04 9.98501 10.07L9.15501 10.23Z" />
<path d="M6.335 11.39H17.665C17.845 11.39 17.995 11.54 17.995 11.72V12.27C17.995 12.45 17.845 12.6 17.665 12.6H15.195C15.615 13.09 15.895 13.73 15.895 14.62C15.895 16.71 13.875 18 11.995 18C9.83181 18 8.38719 16.285 8.27069 16.1467C8.26817 16.1438 8.26501 16.14 8.26501 16.14L8.005 15.81C7.895 15.67 7.915 15.46 8.05501 15.35L8.715 14.82C8.85501 14.71 9.06501 14.73 9.175 14.87L9.43501 15.2C9.465 15.24 10.525 16.5 12.005 16.5C13.155 16.5 14.405 15.78 14.405 14.62C14.405 13.69 13.975 13.21 12.695 12.7L12.455 12.6H6.335C6.155 12.6 6.005 12.45 6.005 12.27V11.72C6.005 11.54 6.155 11.39 6.335 11.39Z" />
</svg>

<?xml version="1.0" encoding="utf-8"?><svg width="24" height="24" xmlns="http://www.w3.org/2000/svg" viewBox="0 0 24 24"><path d="M9.155 10.23a.327.327 0 0 1-.38-.26h.01l-.08-.41c-.05-.22-.07-.45-.07-.71 0-1.4 1.26-2.85 3.37-2.85 1.63 0 2.65 1.28 2.69 1.34l.26.33c.11.14.08.35-.06.46l-.67.52c-.14.11-.35.08-.46-.06l-.26-.33s-.63-.76-1.51-.76c-1.17 0-1.87.69-1.87 1.35 0 .16.01.3.04.43l.08.41c.03.17-.08.35-.26.38l-.83.16Zm-2.82 1.16h11.33c.18 0 .33.15.33.33v.55c0 .18-.15.33-.33.33h-2.47c.42.49.7 1.13.7 2.02 0 2.09-2.02 3.38-3.9 3.38-2.163 0-3.608-1.715-3.724-1.853l-.006-.007-.26-.33a.33.33 0 0 1 .05-.46l.66-.53a.33.33 0 0 1 .46.05l.26.33c.03.04 1.09 1.3 2.57 1.3 1.15 0 2.4-.72 2.4-1.88 0-.93-.43-1.41-1.71-1.92l-.24-.1h-6.12c-.18 0-.33-.15-.33-.33v-.55c0-.18.15-.33.33-.33Z"/></svg>
